X:91
T:Hut in the Bog (reel), The  
B:CRE1.109 (Bothan sa bPortach)
F:file ID: cre.1/091hut_b
S:Sonny Brogan
M:C
L:1/8
Q:180
R:reel
K:Am
A3B AGEG|AGAB c2Bc|A3B AGEe|gedB c2Bc|
A3B AGEG|AGAB c2Bc|A3B AGEe|gedB c3||
%B
d|e2eg edcd|egec d2cd|e2eg edcd|e^fge d2 (3B^cd|
e2eg edcd|egec d2cd|eaa2 eg^fa|gedB c3||
%C
d|ecgc ecc2|ecge d2cd|ecgc ecc2|eage d2cd|
ecgc ecc2|ecge d2cd|eaa2 eg^fa|gedB cABG||A8||

%%%

